view/frontend/web/svg/flags/li.svg

<svg width="24" height="24" viewbox="0 0 20 15" viewBox="0 0 20 15" fill="none" xmlns="http://www.w3.org/2000/svg">
<g clip-path="url(#clip0_270_60865)">
<rect width="20" height="15" fill="white"/>
<path fill-rule="evenodd" clip-rule="evenodd" d="M0 0V15H20V0H0Z" fill="#E31D1C"/>
<mask id="mask0_270_60865" style="mask-type:luminance" maskUnits="userSpaceOnUse" x="0" y="0" width="20" height="15">
<path fill-rule="evenodd" clip-rule="evenodd" d="M0 0V15H20V0H0Z" fill="white"/>
</mask>
<g mask="url(#mask0_270_60865)">
<path fill-rule="evenodd" clip-rule="evenodd" d="M0 0V7.5H20V0H0Z" fill="#2E42A5"/>
<path fill-rule="evenodd" clip-rule="evenodd" d="M2.99902 6.90823C2.99902 6.90823 3.75319 7.37767 5.5008 7.37767C7.2484 7.37767 8.17603 6.90823 8.17603 6.90823C8.17603 6.90823 6.8055 6.11153 5.58008 6.11153C4.35465 6.11153 2.99902 6.90823 2.99902 6.90823Z" fill="black"/>
<path d="M3.04414 4.21388L2.82806 4.33961L2.90037 4.46388H3.04414H8.24742H8.4306L8.4858 4.28921L8.24742 4.21388C8.4858 4.28921 8.48582 4.28913 8.48585 4.28905L8.48591 4.28886L8.48605 4.2884L8.48645 4.28712L8.48766 4.28318L8.49163 4.2699C8.49492 4.25872 8.49943 4.24292 8.5048 4.22299C8.51552 4.18318 8.52971 4.12666 8.54436 4.05735C8.57353 3.91939 8.60523 3.72744 8.61407 3.51381C8.63117 3.10074 8.5651 2.53478 8.13857 2.16399C7.70007 1.7828 7.14888 1.84874 6.70656 1.95929C6.55485 1.99721 6.39806 2.04548 6.25425 2.08976C6.1877 2.11025 6.12393 2.12989 6.06473 2.14724C5.86393 2.20611 5.70807 2.2414 5.58816 2.2414C5.46929 2.2414 5.33305 2.20921 5.16093 2.15503C5.1112 2.13937 5.05696 2.12132 4.99975 2.10227C4.87353 2.06026 4.73288 2.01344 4.59436 1.97699C4.16912 1.86507 3.66623 1.8204 3.1105 2.13513C2.81509 2.30243 2.64299 2.53807 2.56172 2.79741C2.48279 3.04933 2.49367 3.30922 2.53402 3.53125C2.57464 3.75472 2.64798 3.95546 2.70961 4.09832C2.74069 4.17036 2.76945 4.22919 2.79077 4.27059C2.80144 4.29132 2.8103 4.30778 2.81672 4.31944L2.82444 4.33329L2.82679 4.33742L2.82757 4.33876L2.82785 4.33925L2.82797 4.33944C2.82802 4.33953 2.82806 4.33961 3.04414 4.21388Z" fill="#FFD83D" stroke="black" stroke-width="0.5"/>
<path d="M2.50169 4.45448L2.38514 4.23331L2.19218 4.335L2.26677 4.53997L2.98737 6.5202L3.06787 6.74143L3.29346 6.67436L3.29349 6.67436L3.2935 6.67435L3.29354 6.67434L3.29389 6.67424L3.29595 6.67363L3.3051 6.67098L3.34274 6.66037C3.37615 6.6511 3.42576 6.6377 3.48929 6.62154C3.6164 6.58919 3.79882 6.54588 4.01824 6.50254C4.45866 6.41553 5.04095 6.32984 5.62133 6.32984C6.20147 6.32984 6.77257 6.41547 7.20144 6.5023C7.41515 6.54557 7.59188 6.5888 7.71468 6.62106C7.77605 6.63718 7.82385 6.65053 7.85597 6.65975L7.89208 6.6703L7.90079 6.67292L7.90272 6.6735L7.90301 6.67359L7.90306 6.67361L7.90307 6.67361L7.90309 6.67362L8.12829 6.74311L8.21088 6.52228L8.95144 4.54205L9.02853 4.33591L8.83384 4.23331L8.71728 4.45448C8.83384 4.23331 8.83374 4.23326 8.83364 4.23321L8.83342 4.23309L8.83292 4.23283L8.83162 4.23215L8.8279 4.23024L8.81593 4.22424C8.80593 4.21931 8.7919 4.21256 8.77382 4.20425C8.73768 4.18763 8.68536 4.16479 8.61678 4.13785C8.4796 4.08395 8.27742 4.01367 8.0095 3.94392C7.47347 3.80437 6.67536 3.66724 5.60949 3.66724C4.54361 3.66724 3.74551 3.80437 3.20947 3.94392C2.94155 4.01367 2.73937 4.08395 2.6022 4.13785C2.53362 4.16479 2.4813 4.18763 2.44515 4.20425C2.42708 4.21256 2.41305 4.21931 2.40305 4.22424L2.39108 4.23024L2.38735 4.23215L2.38606 4.23283L2.38555 4.23309L2.38533 4.23321C2.38523 4.23326 2.38514 4.23331 2.50169 4.45448Z" fill="#FFD83D" stroke="black" stroke-width="0.5"/>
<path d="M5.54621 2.75943C5.96669 2.75943 6.21637 2.35454 6.21637 1.98113C6.21637 1.60772 5.96669 1.20283 5.54621 1.20283C5.12572 1.20283 4.87604 1.60772 4.87604 1.98113C4.87604 2.35454 5.12572 2.75943 5.54621 2.75943Z" fill="#FFD83D" stroke="black" stroke-width="0.5"/>
<mask id="path-8-outside-1_270_60865" maskUnits="userSpaceOnUse" x="4.07352" y="-1" width="3" height="4" fill="black">
<rect fill="white" x="4.07352" y="-1" width="3" height="4"/>
<path fill-rule="evenodd" clip-rule="evenodd" d="M5.70377 0H5.38864L5.42921 0.576701L5.07352 0.528302V0.924528L5.43467 0.874782L5.38864 1.78302H5.70377L5.65712 0.873254L6.01889 0.924528V0.528302L5.66367 0.579291L5.70377 0Z"/>
</mask>
<path fill-rule="evenodd" clip-rule="evenodd" d="M5.70377 0H5.38864L5.42921 0.576701L5.07352 0.528302V0.924528L5.43467 0.874782L5.38864 1.78302H5.70377L5.65712 0.873254L6.01889 0.924528V0.528302L5.66367 0.579291L5.70377 0Z" fill="#FFD83D"/>
<path d="M5.38864 0V-0.5H4.85224L4.88988 0.0350833L5.38864 0ZM5.70377 0L6.20258 0.0345249L6.23957 -0.5H5.70377V0ZM5.42921 0.576701L5.36179 1.07214L5.97112 1.15505L5.92798 0.541618L5.42921 0.576701ZM5.07352 0.528302L5.14093 0.0328674L4.57352 -0.0443408V0.528302H5.07352ZM5.07352 0.924528H4.57352V1.49812L5.14174 1.41985L5.07352 0.924528ZM5.43467 0.874782L5.93403 0.900089L5.96459 0.297069L5.36644 0.379459L5.43467 0.874782ZM5.38864 1.78302L4.88928 1.75771L4.86266 2.28302H5.38864V1.78302ZM5.70377 1.78302V2.28302H6.23007L6.20311 1.75741L5.70377 1.78302ZM5.65712 0.873254L5.72728 0.378201L5.12671 0.293084L5.15777 0.89886L5.65712 0.873254ZM6.01889 0.924528L5.94873 1.41958L6.51889 1.50039V0.924528H6.01889ZM6.01889 0.528302H6.51889V-0.048594L5.94785 0.0333747L6.01889 0.528302ZM5.66367 0.579291L5.16487 0.544766L5.12213 1.16215L5.73472 1.07422L5.66367 0.579291ZM5.38864 0.5H5.70377V-0.5H5.38864V0.5ZM5.92798 0.541618L5.88741 -0.0350833L4.88988 0.0350833L4.93044 0.611784L5.92798 0.541618ZM5.0061 1.02374L5.36179 1.07214L5.49662 0.0812664L5.14093 0.0328674L5.0061 1.02374ZM5.57352 0.924528V0.528302H4.57352V0.924528H5.57352ZM5.36644 0.379459L5.00529 0.429205L5.14174 1.41985L5.5029 1.37011L5.36644 0.379459ZM5.888 1.80833L5.93403 0.900089L4.93531 0.849475L4.88928 1.75771L5.888 1.80833ZM5.70377 1.28302H5.38864V2.28302H5.70377V1.28302ZM5.15777 0.89886L5.20443 1.80862L6.20311 1.75741L6.15646 0.847648L5.15777 0.89886ZM6.08906 0.429476L5.72728 0.378201L5.58695 1.36831L5.94873 1.41958L6.08906 0.429476ZM5.51889 0.528302V0.924528H6.51889V0.528302H5.51889ZM5.73472 1.07422L6.08994 1.02323L5.94785 0.0333747L5.59263 0.084364L5.73472 1.07422ZM5.20496 -0.0345249L5.16487 0.544766L6.16248 0.613816L6.20258 0.0345249L5.20496 -0.0345249Z" fill="black" mask="url(#path-8-outside-1_270_60865)"/>
</g>
</g>
<defs>
<clipPath id="clip0_270_60865">
<rect width="20" height="15" fill="white"/>
</clipPath>
</defs>
</svg>

<svg width="24" height="24" viewbox="0 0 20 15" fill="none" xmlns="http://www.w3.org/2000/svg">
  <mask id="a" maskUnits="userSpaceOnUse" x="0" y="0" width="20" height="15">
    <path fill="#fff" d="M0 0h20v15H0z"/>
  </mask>
  <g mask="url(#a)">
    <path fill-rule="evenodd" clip-rule="evenodd" d="M0 0v15h20V0H0z" fill="#E31D1C"/>
    <mask id="b" maskUnits="userSpaceOnUse" x="0" y="0" width="20" height="15">
      <path fill-rule="evenodd" clip-rule="evenodd" d="M0 0v15h20V0H0z" fill="#fff"/>
    </mask>
    <g mask="url(#b)">
      <path fill-rule="evenodd" clip-rule="evenodd" d="M0 0v7.5h20V0H0z" fill="#2E42A5"/>
      <path fill-rule="evenodd" clip-rule="evenodd" d="M2.999 6.908s.754.47 2.502.47c1.747 0 2.675-.47 2.675-.47s-1.37-.796-2.596-.796c-1.225 0-2.58.796-2.58.796z" fill="#000"/>
      <path d="M3.044 4.214l-.216.126.072.124h5.531l.055-.175-.239-.075.239.075h0v-.002l.002-.004.004-.013a2.141 2.141 0 00.052-.213c.03-.138.061-.33.07-.543.017-.413-.049-.98-.475-1.35-.439-.381-.99-.315-1.432-.205a8.9 8.9 0 00-.453.13l-.19.058c-.2.06-.356.094-.476.094a1.48 1.48 0 01-.427-.086A10.7 10.7 0 015 2.102a6.292 6.292 0 00-.406-.125c-.425-.112-.928-.157-1.484.158a1.141 1.141 0 00-.548.662 1.543 1.543 0 00-.028.734 2.662 2.662 0 00.283.788l.007.014.003.004v.002h.001l.216-.125z" fill="#FFD83D" stroke="#000" stroke-width=".5"/>
      <path d="M2.502 4.454l-.117-.22-.193.101.075.205.72 1.98.08.221.226-.067h.003l.01-.003.037-.01.146-.04c.127-.032.31-.075.53-.118A8.526 8.526 0 015.62 6.33c.58 0 1.152.085 1.58.172a9.313 9.313 0 01.655.158l.036.01.009.003h.002l.225.07.083-.22.74-1.981.078-.206-.195-.103-.117.221.117-.22h0l-.001-.001h-.001l-.004-.003-.012-.006a3.03 3.03 0 00-.2-.086 5.368 5.368 0 00-.607-.194c-.536-.14-1.334-.277-2.4-.277-1.065 0-1.863.137-2.4.277-.267.07-.47.14-.607.194a3.034 3.034 0 00-.199.086l-.012.006-.004.002h0l-.001.001h0l.116.221zM5.546 2.76c.42 0 .67-.405.67-.779 0-.373-.25-.778-.67-.778-.42 0-.67.405-.67.778 0 .374.25.778.67.778z" fill="#FFD83D" stroke="#000" stroke-width=".5"/>
      <mask id="c" maskUnits="userSpaceOnUse" x="4.074" y="-1" width="3" height="4" fill="#000">
        <path fill="#fff" d="M4.074-1h3v4h-3z"/>
        <path fill-rule="evenodd" clip-rule="evenodd" d="M5.704 0h-.315l.04.577-.355-.049v.397l.36-.05-.045.908h.315l-.047-.91.362.052V.528L5.664.58l.04-.58z"/>
      </mask>
      <path fill-rule="evenodd" clip-rule="evenodd" d="M5.704 0h-.315l.04.577-.355-.049v.397l.36-.05-.045.908h.315l-.047-.91.362.052V.528L5.664.58l.04-.58z" fill="#FFD83D"/>
      <path d="M5.389 0v-.5h-.537l.038.535L5.389 0zm.315 0l.499.035L6.24-.5h-.536V0zm-.275.577l-.067.495.61.083-.044-.613-.499.035zM5.074.528L5.14.033l-.567-.077v.572h.5zm0 .397h-.5v.573l.568-.078-.068-.495zm.36-.05l.5.025.03-.603-.598.082.069.496zm-.045.908l-.5-.025-.026.525h.526v-.5zm.315 0v.5h.526l-.027-.526-.5.026zm-.047-.91l.07-.495-.6-.085.03.606.5-.026zm.362.052l-.07.495.57.08V.925h-.5zm0-.397h.5v-.577l-.571.082.07.495zM5.664.58l-.5-.034-.042.617.613-.088L5.664.58zM5.389.5h.315v-1h-.315v1zm.539.042l-.04-.577-.998.07.04.577.998-.07zm-.922.482l.356.048.135-.99-.356-.05-.135.992zm.568-.1V.529h-1v.397h1zM5.366.38l-.36.05.136.99.36-.049-.136-.99zm.522 1.43L5.934.9 4.935.85l-.046.908.999.05zm-.184-.526h-.315v1h.315v-1zM5.158.899l.046.91 1-.052-.048-.91L5.158.9zm.931-.47L5.727.38l-.14.99.362.05.14-.99zm-.57.1v.396h1V.528h-1zm.216.545l.355-.05-.142-.99-.355.05.142.99zm-.53-1.109l-.04.58.997.069.04-.58-.997-.069z" fill="#000" mask="url(#c)"/>
    </g>
  </g>
</svg>
